X: 23104
T: Laureen's Tune
R: waltz
M: 3/4
K: Gmajor
|GA|:Bc B2 AG|d2 GB AD|CE A2 BA|GF D2 GA|
Bc B2 AB|d2 GB AD|CE A2 B,2|1 G4 GA:|2 G4 Bc||
dgdg gc|cB gB cd|AB D2 Bc|
dgdg gc|[M:4/4]cB Bc E2F2|[M:3/4] G4 Bc|
dgdg gc|cB gB cd|AB D2 GA|
Bc B2 AB|d2 GB AD|CE A2 B,2|G4 GA||

